src/objects/sound/1F509.svg

<svg id="emoji" viewBox="0 0 72 72" xmlns="http://www.w3.org/2000/svg">
  <g id="grid">
    <path fill="#b3b3b3" d="M68,4V68H4V4H68m4-4H0V72H72V0Z"/>
    <path fill="none" stroke="#00a5ff" stroke-miterlimit="10" stroke-width="0.1" d="M12.923,10.9583H59.0769A1.9231,1.9231,0,0,1,61,12.8814V59.0352a1.9231,1.9231,0,0,1-1.9231,1.9231H12.9231A1.9231,1.9231,0,0,1,11,59.0352V12.8813A1.923,1.923,0,0,1,12.923,10.9583Z"/>
    <rect x="16" y="4" rx="2.2537" width="40" height="64" fill="none" stroke="#00a5ff" stroke-miterlimit="10" stroke-width="0.1"/>
    <rect x="16" y="4" rx="2.2537" width="40" height="64" transform="translate(72) rotate(90)" fill="none" stroke="#00a5ff" stroke-miterlimit="10" stroke-width="0.1"/>
    <circle cx="36" cy="36" r="29" fill="none" stroke="#00a5ff" stroke-miterlimit="10" stroke-width="0.1"/>
  </g>
  <g id="color">
    <path fill="#9b9b9a" stroke="none" d="M12.0792,44.4113v-16.694c0-1.1046,0.8955-2,2-2h11.712v20.692h-11.712 C12.9754,46.4093,12.0803,45.5151,12.0792,44.4113z"/>
    <path fill="#d0cfce" stroke="none" d="M42.2682,58.4333l-14.5-11.579c0.036-0.0961,0.0566-0.1974,0.061-0.3v-21.25 c-0.0055-0.0394-0.0135-0.0785-0.024-0.117l14.459-11.74L42.2682,58.4333z"/>
  </g>
  <g id="hair"/>
  <g id="skin"/>
  <g id="skin-shadow"/>
  <g id="line">
    <path fill="none" stroke="#000000" stroke-linecap="round" stroke-linejoin="round" stroke-width="2" d="M43.2188,11.3752 l-16.435,13.346h-12.712c-1.6548,0.005-2.995,1.3452-3,3v16.692c0.005,1.6548,1.3452,2.995,3,3h12.712l16.436,13.128 L43.2188,11.3752z"/>
    <line x1="26.7838" x2="26.7838" y1="25.3332" y2="46.5832" fill="none" stroke="#000000" stroke-linecap="round" stroke-linejoin="round" stroke-width="2"/>
    <path fill="none" stroke="#000000" stroke-linecap="round" stroke-miterlimit="10" stroke-width="2" d="M54.6738,24.6122 c5.0427,6.7235,5.0427,15.9684,0,22.692"/>
    <path fill="none" stroke="#000000" stroke-linecap="round" stroke-miterlimit="10" stroke-width="2" d="M58.8689,19.7825 c7.1892,9.5856,7.1892,22.7658,0,32.3514"/>
  </g>
</svg>

<svg viewBox="0 0 72 72" xmlns="http://www.w3.org/2000/svg"><path fill="#b3b3b3" d="M68 4v64H4V4h64m4-4H0v72h72V0z"/><path fill="none" stroke="#00a5ff" stroke-miterlimit="10" stroke-width=".1" d="M12.923 10.958h46.154A1.923 1.923 0 0161 12.881v46.154a1.923 1.923 0 01-1.923 1.923H12.923A1.923 1.923 0 0111 59.035V12.881a1.923 1.923 0 011.923-1.923z"/><rect x="16" y="4" rx="2.254" width="40" height="64" fill="none" stroke="#00a5ff" stroke-miterlimit="10" stroke-width=".1"/><rect x="16" y="4" rx="2.254" width="40" height="64" transform="rotate(90 36 36)" fill="none" stroke="#00a5ff" stroke-miterlimit="10" stroke-width=".1"/><circle cx="36" cy="36" r="29" fill="none" stroke="#00a5ff" stroke-miterlimit="10" stroke-width=".1"/><path d="M43.219 11.375L26.784 24.721H14.072a3.01 3.01 0 00-3 3v16.692a3.01 3.01 0 003 3h12.712L43.22 60.541l-.001-49.166zM26.784 25.333v21.25m27.89-21.971a18.91 18.91 0 010 22.692m4.195-27.522a26.96 26.96 0 010 32.352" stroke-linecap="round" stroke-miterlimit="10" stroke-width="6" stroke="#fff" fill="none" stroke-linejoin="round"/><path fill="#9b9b9a" d="M12.08 44.411V27.717a2 2 0 012-2h11.71V46.41H14.08a2 2 0 01-2-1.998z"/><path fill="#d0cfce" d="M42.268 58.433l-14.5-11.579a.974.974 0 00.061-.3v-21.25a.937.937 0 00-.024-.117l14.46-11.74.003 44.986z"/><g fill="none" stroke="#000" stroke-linecap="round" stroke-width="2"><path stroke-linejoin="round" d="M43.219 11.375L26.784 24.721H14.072a3.01 3.01 0 00-3 3v16.692a3.01 3.01 0 003 3h12.712L43.22 60.541l-.001-49.166zM26.784 25.333v21.25"/><path stroke-miterlimit="10" d="M54.674 24.612a18.91 18.91 0 010 22.692m4.195-27.522a26.96 26.96 0 010 32.352"/></g></svg>
